48/places/network-workgroup.svg

<?xml version="1.0" encoding="UTF-8" standalone="no"?>
<!-- Created with Inkscape (http://www.inkscape.org/) -->

<svg
   xmlns:dc="http://purl.org/dc/elements/1.1/"
   xmlns:cc="http://creativecommons.org/ns#"
   xmlns:rdf="http://www.w3.org/1999/02/22-rdf-syntax-ns#"
   xmlns:svg="http://www.w3.org/2000/svg"
   xmlns="http://www.w3.org/2000/svg"
   xmlns:sodipodi="http://sodipodi.sourceforge.net/DTD/sodipodi-0.dtd"
   xmlns:inkscape="http://www.inkscape.org/namespaces/inkscape"
   width="48"
   height="48"
   viewBox="0 0 12.7 12.7"
   version="1.1"
   id="svg2634"
   inkscape:version="0.92.4 5da689c313, 2019-01-14"
   sodipodi:docname="network-workgroup.svg">
  <title
     id="title3250">Boston Icons</title>
  <defs
     id="defs2628" />
  <sodipodi:namedview
     id="base"
     pagecolor="#ffffff"
     bordercolor="#00ffed"
     borderopacity="1"
     inkscape:pageopacity="1"
     inkscape:pageshadow="2"
     inkscape:zoom="15.839192"
     inkscape:cx="12.168514"
     inkscape:cy="20.899191"
     inkscape:document-units="px"
     inkscape:current-layer="layer1"
     showgrid="false"
     showguides="false"
     inkscape:guide-bbox="true"
     fit-margin-top="0"
     fit-margin-left="0"
     fit-margin-right="0"
     fit-margin-bottom="0"
     inkscape:window-width="1920"
     inkscape:window-height="1016"
     inkscape:window-x="0"
     inkscape:window-y="27"
     inkscape:window-maximized="1"
     units="px">
    <inkscape:grid
       type="xygrid"
       id="grid3182"
       spacingx="0.26458333"
       spacingy="0.26458333"
       empspacing="4"
       originx="-82.550004"
       originy="-127.00001"
       dotted="false" />
    <sodipodi:guide
       position="-4.268358e-06,27.516666"
       orientation="1,0"
       id="guide3216"
       inkscape:locked="false" />
    <sodipodi:guide
       position="32.279157,-4.1479283e-06"
       orientation="0,1"
       id="guide3222"
       inkscape:locked="false" />
    <sodipodi:guide
       position="13.229163,0.52915746"
       orientation="0,1"
       id="guide3226"
       inkscape:locked="false" />
    <sodipodi:guide
       position="0.52916318,6.8791574"
       orientation="1,0"
       id="guide3228"
       inkscape:locked="false" />
    <sodipodi:guide
       position="2.9104116,3.4395717"
       orientation="1,0"
       id="guide3236"
       inkscape:locked="false" />
    <sodipodi:guide
       position="13.75833,1.0583241"
       orientation="0,1"
       id="guide3246"
       inkscape:locked="false" />
    <sodipodi:guide
       position="5.8208298,12.170824"
       orientation="0,1"
       id="guide864"
       inkscape:locked="false" />
    <sodipodi:guide
       position="12.17083,8.4666574"
       orientation="1,0"
       id="guide868"
       inkscape:locked="false" />
    <sodipodi:guide
       position="9.7895782,5.0270717"
       orientation="1,0"
       id="guide872"
       inkscape:locked="false" />
    <sodipodi:guide
       position="11.112495,2.6458217"
       orientation="0,1"
       id="guide7468"
       inkscape:locked="false" />
    <sodipodi:guide
       position="6.0854116,6.3499883"
       orientation="0,1"
       id="guide1893"
       inkscape:locked="false" />
    <sodipodi:guide
       position="6.3499949,6.085405"
       orientation="1,0"
       id="guide1103"
       inkscape:locked="false" />
  </sodipodi:namedview>
  <metadata
     id="metadata2631">
    <rdf:RDF>
      <cc:Work
         rdf:about="">
        <dc:format>image/svg+xml</dc:format>
        <dc:type
           rdf:resource="http://purl.org/dc/dcmitype/StillImage" />
        <dc:title>Boston Icons</dc:title>
        <cc:license
           rdf:resource="dribbble.com/chrisdiaz" />
        <dc:creator>
          <cc:Agent>
            <dc:title>Christian Díaz</dc:title>
          </cc:Agent>
        </dc:creator>
        <dc:date>2019</dc:date>
        <dc:publisher>
          <cc:Agent>
            <dc:title>Christian Díaz</dc:title>
          </cc:Agent>
        </dc:publisher>
        <dc:identifier>christiandiaz.design [at] gmail [dot] com</dc:identifier>
        <dc:subject>
          <rdf:Bag>
            <rdf:li>GNOME icon Theme</rdf:li>
          </rdf:Bag>
        </dc:subject>
        <dc:description>diazchris.deviantart.com | dribbble.com/chrisdiaz</dc:description>
      </cc:Work>
    </rdf:RDF>
  </metadata>
  <g
     inkscape:label="Capa 1"
     inkscape:groupmode="layer"
     id="layer1"
     transform="translate(-82.550003,-157.3)">
    <g
       id="g851">
      <rect
         y="157.82918"
         x="86.518745"
         height="3.7041688"
         width="4.7624998"
         id="rect957"
         style="opacity:1;fill:#33383f;fill-opacity:1;fill-rule:nonzero;stroke:none;stroke-width:0.26458332;stroke-linecap:round;stroke-linejoin:bevel;stroke-miterlimit:4;stroke-dasharray:none;stroke-dashoffset:35;stroke-opacity:1" />
      <rect
         y="158.09377"
         x="86.783333"
         height="3.175"
         width="4.2333331"
         id="rect959"
         style="opacity:1;fill:#464d56;fill-opacity:1;fill-rule:nonzero;stroke:none;stroke-width:0.26458332;stroke-linecap:round;stroke-linejoin:bevel;stroke-miterlimit:4;stroke-dasharray:none;stroke-dashoffset:35;stroke-opacity:1" />
      <path
         inkscape:connector-curvature="0"
         id="path1043"
         d="m 88.899998,158.09376 -0.79375,3.175 h -1.322917 v -3.175 z"
         style="opacity:0.2;fill:#ffffff;fill-opacity:1;stroke:none;stroke-width:0.26458332px;stroke-linecap:butt;stroke-linejoin:miter;stroke-opacity:1" />
      <rect
         y="165.76668"
         x="83.079163"
         height="3.704169"
         width="4.7624998"
         id="rect957-2"
         style="opacity:1;fill:#33383f;fill-opacity:1;fill-rule:nonzero;stroke:none;stroke-width:0.26458332;stroke-linecap:round;stroke-linejoin:bevel;stroke-miterlimit:4;stroke-dasharray:none;stroke-dashoffset:35;stroke-opacity:1" />
      <rect
         y="166.03127"
         x="83.34375"
         height="3.175"
         width="4.2333331"
         id="rect959-7"
         style="opacity:1;fill:#464d56;fill-opacity:1;fill-rule:nonzero;stroke:none;stroke-width:0.26458332;stroke-linecap:round;stroke-linejoin:bevel;stroke-miterlimit:4;stroke-dasharray:none;stroke-dashoffset:35;stroke-opacity:1" />
      <path
         inkscape:connector-curvature="0"
         id="path1043-0"
         d="m 85.460413,166.03125 -0.79375,3.175 h -1.322917 v -3.175 z"
         style="opacity:0.2;fill:#ffffff;fill-opacity:1;stroke:none;stroke-width:0.26458332px;stroke-linecap:butt;stroke-linejoin:miter;stroke-opacity:1" />
      <rect
         y="165.76668"
         x="89.958328"
         height="3.704169"
         width="4.7624998"
         id="rect957-9"
         style="opacity:1;fill:#33383f;fill-opacity:1;fill-rule:nonzero;stroke:none;stroke-width:0.26458332;stroke-linecap:round;stroke-linejoin:bevel;stroke-miterlimit:4;stroke-dasharray:none;stroke-dashoffset:35;stroke-opacity:1" />
      <rect
         y="166.03127"
         x="90.222916"
         height="3.175"
         width="4.2333331"
         id="rect959-3"
         style="opacity:1;fill:#464d56;fill-opacity:1;fill-rule:nonzero;stroke:none;stroke-width:0.26458332;stroke-linecap:round;stroke-linejoin:bevel;stroke-miterlimit:4;stroke-dasharray:none;stroke-dashoffset:35;stroke-opacity:1" />
      <path
         inkscape:connector-curvature="0"
         id="path1043-6"
         d="m 92.33958,166.03125 -0.79375,3.175 h -1.322917 v -3.175 z"
         style="opacity:0.2;fill:#ffffff;fill-opacity:1;stroke:none;stroke-width:0.26458332px;stroke-linecap:butt;stroke-linejoin:miter;stroke-opacity:1" />
      <path
         id="rect1076"
         transform="matrix(0.26458333,0,0,0.26458333,82.550003,157.3)"
         d="m 22,18 v 4 H 9 v 1 3 4 h 4 v -4 h 22 v 4 h 4 V 26 24 22 H 26 v -4 z"
         style="opacity:1;fill:#7fb9ec;fill-opacity:1;fill-rule:nonzero;stroke:none;stroke-width:0.99999994;stroke-linecap:round;stroke-linejoin:bevel;stroke-miterlimit:4;stroke-dasharray:none;stroke-dashoffset:35;stroke-opacity:1"
         inkscape:connector-curvature="0" />
      <path
         id="rect1085"
         transform="matrix(0.26458333,0,0,0.26458333,82.550003,157.3)"
         d="m 22,17 v 5 H 9 v 1 8 h 1 v -8 h 12 1 v -6 z m 3,0 v 5 1 h 13 v 8 h 1 V 22 H 38 26 v -5 z m -13,8 v 6 h 1 v -5 h 22 v 5 h 1 V 26 25 H 13 Z"
         style="opacity:1;fill:#5f7a8d;fill-opacity:1;fill-rule:nonzero;stroke:none;stroke-width:0.99999994;stroke-linecap:round;stroke-linejoin:bevel;stroke-miterlimit:4;stroke-dasharray:none;stroke-dashoffset:35;stroke-opacity:1"
         inkscape:connector-curvature="0" />
    </g>
  </g>
</svg>

<?xml version="1.0" encoding="UTF-8" standalone="no"?>
<!-- Created with Inkscape (http://www.inkscape.org/) -->

<svg
   xmlns:dc="http://purl.org/dc/elements/1.1/"
   xmlns:cc="http://creativecommons.org/ns#"
   xmlns:rdf="http://www.w3.org/1999/02/22-rdf-syntax-ns#"
   xmlns:svg="http://www.w3.org/2000/svg"
   xmlns="http://www.w3.org/2000/svg"
   xmlns:sodipodi="http://sodipodi.sourceforge.net/DTD/sodipodi-0.dtd"
   xmlns:inkscape="http://www.inkscape.org/namespaces/inkscape"
   width="48"
   height="48"
   viewBox="0 0 12.7 12.7"
   version="1.1"
   id="svg2634"
   inkscape:version="0.92.4 5da689c313, 2019-01-14"
   sodipodi:docname="network-workgroup.svg">
  <title
     id="title3250">Boston Icons</title>
  <defs
     id="defs2628" />
  <sodipodi:namedview
     id="base"
     pagecolor="#ffffff"
     bordercolor="#00ffed"
     borderopacity="1"
     inkscape:pageopacity="1"
     inkscape:pageshadow="2"
     inkscape:zoom="15.839192"
     inkscape:cx="-0.33212354"
     inkscape:cy="20.078442"
     inkscape:document-units="px"
     inkscape:current-layer="layer1"
     showgrid="false"
     showguides="false"
     inkscape:guide-bbox="true"
     fit-margin-top="0"
     fit-margin-left="0"
     fit-margin-right="0"
     fit-margin-bottom="0"
     inkscape:window-width="1920"
     inkscape:window-height="1016"
     inkscape:window-x="0"
     inkscape:window-y="27"
     inkscape:window-maximized="1"
     units="px">
    <inkscape:grid
       type="xygrid"
       id="grid3182"
       spacingx="0.26458333"
       spacingy="0.26458333"
       empspacing="4"
       originx="-82.550004"
       originy="-127.00001"
       dotted="false" />
    <sodipodi:guide
       position="-4.268358e-06,27.516666"
       orientation="1,0"
       id="guide3216"
       inkscape:locked="false" />
    <sodipodi:guide
       position="32.279157,-4.1479283e-06"
       orientation="0,1"
       id="guide3222"
       inkscape:locked="false" />
    <sodipodi:guide
       position="13.229163,0.52915746"
       orientation="0,1"
       id="guide3226"
       inkscape:locked="false" />
    <sodipodi:guide
       position="0.52916318,6.8791574"
       orientation="1,0"
       id="guide3228"
       inkscape:locked="false" />
    <sodipodi:guide
       position="2.9104116,3.4395717"
       orientation="1,0"
       id="guide3236"
       inkscape:locked="false" />
    <sodipodi:guide
       position="13.75833,1.0583241"
       orientation="0,1"
       id="guide3246"
       inkscape:locked="false" />
    <sodipodi:guide
       position="5.8208298,12.170824"
       orientation="0,1"
       id="guide864"
       inkscape:locked="false" />
    <sodipodi:guide
       position="12.17083,8.4666574"
       orientation="1,0"
       id="guide868"
       inkscape:locked="false" />
    <sodipodi:guide
       position="9.7895782,5.0270717"
       orientation="1,0"
       id="guide872"
       inkscape:locked="false" />
    <sodipodi:guide
       position="11.112495,2.6458217"
       orientation="0,1"
       id="guide7468"
       inkscape:locked="false" />
    <sodipodi:guide
       position="6.0854116,6.3499883"
       orientation="0,1"
       id="guide1893"
       inkscape:locked="false" />
    <sodipodi:guide
       position="6.3499949,6.085405"
       orientation="1,0"
       id="guide1103"
       inkscape:locked="false" />
  </sodipodi:namedview>
  <metadata
     id="metadata2631">
    <rdf:RDF>
      <cc:Work
         rdf:about="">
        <dc:format>image/svg+xml</dc:format>
        <dc:type
           rdf:resource="http://purl.org/dc/dcmitype/StillImage" />
        <dc:title>Boston Icons</dc:title>
        <cc:license
           rdf:resource="dribbble.com/chrisdiaz" />
        <dc:creator>
          <cc:Agent>
            <dc:title>Christian Díaz</dc:title>
          </cc:Agent>
        </dc:creator>
        <dc:date>2019</dc:date>
        <dc:publisher>
          <cc:Agent>
            <dc:title>Christian Díaz</dc:title>
          </cc:Agent>
        </dc:publisher>
        <dc:identifier>christiandiaz.design [at] gmail [dot] com</dc:identifier>
        <dc:subject>
          <rdf:Bag>
            <rdf:li>GNOME icon Theme</rdf:li>
          </rdf:Bag>
        </dc:subject>
        <dc:description>diazchris.deviantart.com | dribbble.com/chrisdiaz</dc:description>
      </cc:Work>
    </rdf:RDF>
  </metadata>
  <g
     inkscape:label="Capa 1"
     inkscape:groupmode="layer"
     id="layer1"
     transform="translate(-82.550003,-157.3)">
    <g
       id="g851">
      <rect
         y="157.82918"
         x="86.518745"
         height="3.7041688"
         width="4.7624998"
         id="rect957"
         style="opacity:1;fill:#8698a6;fill-opacity:1;fill-rule:nonzero;stroke:none;stroke-width:0.26458332;stroke-linecap:round;stroke-linejoin:bevel;stroke-miterlimit:4;stroke-dasharray:none;stroke-dashoffset:35;stroke-opacity:1" />
      <rect
         y="158.09377"
         x="86.783333"
         height="3.175"
         width="4.2333331"
         id="rect959"
         style="opacity:1;fill:#7fb9ec;fill-opacity:1;fill-rule:nonzero;stroke:none;stroke-width:0.26458332;stroke-linecap:round;stroke-linejoin:bevel;stroke-miterlimit:4;stroke-dasharray:none;stroke-dashoffset:35;stroke-opacity:1" />
      <path
         inkscape:connector-curvature="0"
         id="path1043"
         d="m 88.899998,158.09376 -0.79375,3.175 h -1.322917 v -3.175 z"
         style="fill:#ffffff;stroke:none;stroke-width:0.26458332px;stroke-linecap:butt;stroke-linejoin:miter;stroke-opacity:1;fill-opacity:1;opacity:0.2" />
      <rect
         y="165.76668"
         x="83.079163"
         height="3.704169"
         width="4.7624998"
         id="rect957-2"
         style="opacity:1;fill:#8698a6;fill-opacity:1;fill-rule:nonzero;stroke:none;stroke-width:0.26458332;stroke-linecap:round;stroke-linejoin:bevel;stroke-miterlimit:4;stroke-dasharray:none;stroke-dashoffset:35;stroke-opacity:1" />
      <rect
         y="166.03127"
         x="83.34375"
         height="3.175"
         width="4.2333331"
         id="rect959-7"
         style="opacity:1;fill:#7fb9ec;fill-opacity:1;fill-rule:nonzero;stroke:none;stroke-width:0.26458332;stroke-linecap:round;stroke-linejoin:bevel;stroke-miterlimit:4;stroke-dasharray:none;stroke-dashoffset:35;stroke-opacity:1" />
      <path
         inkscape:connector-curvature="0"
         id="path1043-0"
         d="m 85.460413,166.03125 -0.79375,3.175 h -1.322917 v -3.175 z"
         style="opacity:0.2;fill:#ffffff;fill-opacity:1;stroke:none;stroke-width:0.26458332px;stroke-linecap:butt;stroke-linejoin:miter;stroke-opacity:1" />
      <rect
         y="165.76668"
         x="89.958328"
         height="3.704169"
         width="4.7624998"
         id="rect957-9"
         style="opacity:1;fill:#8698a6;fill-opacity:1;fill-rule:nonzero;stroke:none;stroke-width:0.26458332;stroke-linecap:round;stroke-linejoin:bevel;stroke-miterlimit:4;stroke-dasharray:none;stroke-dashoffset:35;stroke-opacity:1" />
      <rect
         y="166.03127"
         x="90.222916"
         height="3.175"
         width="4.2333331"
         id="rect959-3"
         style="opacity:1;fill:#7fb9ec;fill-opacity:1;fill-rule:nonzero;stroke:none;stroke-width:0.26458332;stroke-linecap:round;stroke-linejoin:bevel;stroke-miterlimit:4;stroke-dasharray:none;stroke-dashoffset:35;stroke-opacity:1" />
      <path
         inkscape:connector-curvature="0"
         id="path1043-6"
         d="m 92.33958,166.03125 -0.79375,3.175 h -1.322917 v -3.175 z"
         style="opacity:0.2;fill:#ffffff;fill-opacity:1;stroke:none;stroke-width:0.26458332px;stroke-linecap:butt;stroke-linejoin:miter;stroke-opacity:1" />
      <path
         id="rect1076"
         transform="matrix(0.26458333,0,0,0.26458333,82.550003,157.3)"
         d="M 22 18 L 22 22 L 9 22 L 9 23 L 9 26 L 9 30 L 13 30 L 13 26 L 35 26 L 35 30 L 39 30 L 39 26 L 39 24 L 39 22 L 26 22 L 26 18 L 22 18 z "
         style="opacity:1;fill:#7fb9ec;fill-opacity:1;fill-rule:nonzero;stroke:none;stroke-width:0.99999994;stroke-linecap:round;stroke-linejoin:bevel;stroke-miterlimit:4;stroke-dasharray:none;stroke-dashoffset:35;stroke-opacity:1" />
      <path
         id="rect1085"
         transform="matrix(0.26458333,0,0,0.26458333,82.550003,157.3)"
         d="M 22 17 L 22 22 L 9 22 L 9 23 L 9 31 L 10 31 L 10 23 L 22 23 L 23 23 L 23 17 L 22 17 z M 25 17 L 25 22 L 25 23 L 38 23 L 38 31 L 39 31 L 39 22 L 38 22 L 26 22 L 26 17 L 25 17 z M 12 25 L 12 31 L 13 31 L 13 26 L 35 26 L 35 31 L 36 31 L 36 26 L 36 25 L 13 25 L 12 25 z "
         style="opacity:1;fill:#8698a6;fill-opacity:1;fill-rule:nonzero;stroke:none;stroke-width:0.99999994;stroke-linecap:round;stroke-linejoin:bevel;stroke-miterlimit:4;stroke-dasharray:none;stroke-dashoffset:35;stroke-opacity:1" />
    </g>
  </g>
</svg>
